src/assets/images/shot.svg

<svg width="13" height="19" viewBox="0 0 13 19" fill="none" xmlns="http://www.w3.org/2000/svg">
<g id="Vector">
<path id="Vector_2" fill-rule="evenodd" clip-rule="evenodd" d="M8.35706 0.864036C8.35717 0.674189 8.29001 0.489601 8.16597 0.338826C8.04194 0.18805 7.86794 0.0794891 7.67089 0.0299367C7.47385 -0.0196157 7.26473 -0.00739831 7.07591 0.0646991C6.88708 0.136797 6.72905 0.264756 6.62628 0.428783L0.126556 10.7919C0.0442126 10.9232 0.000559971 11.0723 5.35171e-06 11.2243C-0.000549268 11.3762 0.0420134 11.5256 0.123396 11.6574C0.204779 11.7891 0.322101 11.8986 0.463515 11.9747C0.604929 12.0508 0.765428 12.0908 0.928807 12.0908H4.64294V18.136C4.64283 18.3258 4.70999 18.5104 4.83403 18.6612C4.95806 18.812 5.13206 18.9205 5.32911 18.9701C5.52615 19.0196 5.73526 19.0074 5.92409 18.9353C6.11292 18.8632 6.27095 18.7352 6.37372 18.5712L12.8734 8.20806C12.9558 8.07682 12.9994 7.92769 13 7.77574C13.0005 7.62379 12.958 7.47439 12.8766 7.34263C12.7952 7.21087 12.6779 7.10141 12.5365 7.02531C12.3951 6.94921 12.2346 6.90917 12.0712 6.90921H8.35706V0.864036Z" fill="url(#paint0_linear_797_2253)"/>
</g>
<defs>
<linearGradient id="paint0_linear_797_2253" x1="-1.5428" y1="17.4844" x2="18.8258" y2="7.49667" gradientUnits="userSpaceOnUse">
<stop stop-color="#FCFE5D"/>
<stop offset="0.240165" stop-color="#FDDC08"/>
<stop offset="0.477179" stop-color="#FD9F83"/>
<stop offset="0.695723" stop-color="#F97DD3"/>
<stop offset="1" stop-color="#C566E4"/>
</linearGradient>
</defs>
</svg>

<svg width="13" height="19" fill="none" xmlns="http://www.w3.org/2000/svg"><path fill-rule="evenodd" clip-rule="evenodd" d="M8.357.864a.825.825 0 0 0-.191-.525.935.935 0 0 0-.495-.31.994.994 0 0 0-.595.036.912.912 0 0 0-.45.364l-6.5 10.363a.818.818 0 0 0-.003.865.899.899 0 0 0 .34.318.983.983 0 0 0 .466.116h3.714v6.045c0 .19.067.374.191.525.124.151.298.26.495.31.197.049.406.036.595-.036a.912.912 0 0 0 .45-.364l6.5-10.363a.818.818 0 0 0 .003-.865.899.899 0 0 0-.34-.318.983.983 0 0 0-.466-.116H8.357V.864Z" fill="url(#a)"/><defs><linearGradient id="a" x1="-1.543" y1="17.484" x2="18.826" y2="7.497" gradientUnits="userSpaceOnUse"><stop stop-color="#FCFE5D"/><stop offset=".24" stop-color="#FDDC08"/><stop offset=".477" stop-color="#FD9F83"/><stop offset=".696" stop-color="#F97DD3"/><stop offset="1" stop-color="#C566E4"/></linearGradient></defs></svg>
